Newaita/actions/16/media-playlist-shuffle.svg

<svg height="16" viewBox="0 0 16 16" width="16" xmlns="http://www.w3.org/2000/svg"><g fill="#424242"><path d="m4.300781 1.449219-2.316406 3.304687h1.65625c0 1.070313.625 1.902344 1.394531 2.496094.246094.191406.515625.367188.789063.535156.460937-.28125.933593-.519531 1.382812-.746094-.523437-.273437-1-.546874-1.367187-.832031-.597656-.460937-.882813-.867187-.882813-1.453125h1.65625zm4.042969 6.492187c-.132812.070313-.269531.136719-.40625.203125-.15625.078125-.3125.160157-.464844.238281.152344-.078124.308594-.160156.464844-.238281.136719-.066406.273438-.132812.40625-.203125zm1.691406.613282c-.460937.253906-.933594.484374-1.382812.707031.515625.289062.984375.589843 1.347656.914062.59375.53125.917969 1.066407.917969 1.855469h-.003907v2.316406c0 .183594.148438.332032.332032.332032h.660156c.183594 0 .332031-.148438.332031-.332032v-2.316406h-.003906c0-1.191406-.582031-2.144531-1.355469-2.835938-.261718-.234374-.546875-.445312-.84375-.640624zm0 0"/><path d="m11.578125 1.449219-2.316406 3.304687h1.65625c0 .585938-.285157.992188-.882813 1.453125-.59375.460938-1.476562.890625-2.390625 1.351563-.917969.457031-1.875.945312-2.644531 1.636718-.773438.691407-1.359375 1.644532-1.359375 2.835938h-.003906v2.316406c0 .183594.148437.332032.332031.332032h.660156c.183594 0 .332032-.148438.332032-.332032v-2.316406h-.003907c0-.789062.328125-1.324219.917969-1.855469.59375-.527343 1.457031-.988281 2.359375-1.441406.902344-.449219 1.839844-.890625 2.609375-1.484375.765625-.59375 1.390625-1.425781 1.390625-2.496094h1.65625zm0 0"/></g></svg>

<?xml version="1.0" encoding="UTF-8"?>
<svg xmlns="http://www.w3.org/2000/svg" xmlns:xlink="http://www.w3.org/1999/xlink" width="16px" height="16px" viewBox="0 0 16 16" version="1.1">
<g id="surface1">
<path style=" stroke:none;fill-rule:nonzero;fill:rgb(25.882354%,25.882354%,25.882354%);fill-opacity:1;" d="M 4.300781 1.449219 L 1.984375 4.753906 L 3.640625 4.753906 C 3.640625 5.824219 4.265625 6.65625 5.035156 7.25 C 5.28125 7.441406 5.550781 7.617188 5.824219 7.785156 C 6.285156 7.503906 6.757812 7.265625 7.207031 7.039062 C 6.683594 6.765625 6.207031 6.492188 5.839844 6.207031 C 5.242188 5.746094 4.957031 5.339844 4.957031 4.753906 L 6.613281 4.753906 Z M 8.34375 7.941406 C 8.210938 8.011719 8.074219 8.078125 7.9375 8.144531 C 7.78125 8.222656 7.625 8.304688 7.472656 8.382812 C 7.625 8.304688 7.78125 8.222656 7.9375 8.144531 C 8.074219 8.078125 8.210938 8.011719 8.34375 7.941406 Z M 10.035156 8.554688 C 9.574219 8.808594 9.101562 9.039062 8.652344 9.261719 C 9.167969 9.550781 9.636719 9.851562 10 10.175781 C 10.59375 10.707031 10.917969 11.242188 10.917969 12.03125 L 10.914062 12.03125 L 10.914062 14.347656 C 10.914062 14.53125 11.0625 14.679688 11.246094 14.679688 L 11.90625 14.679688 C 12.089844 14.679688 12.238281 14.53125 12.238281 14.347656 L 12.238281 12.03125 L 12.234375 12.03125 C 12.234375 10.839844 11.652344 9.886719 10.878906 9.195312 C 10.617188 8.960938 10.332031 8.75 10.035156 8.554688 Z M 10.035156 8.554688 "/>
<path style=" stroke:none;fill-rule:nonzero;fill:rgb(25.882354%,25.882354%,25.882354%);fill-opacity:1;" d="M 11.578125 1.449219 L 9.261719 4.753906 L 10.917969 4.753906 C 10.917969 5.339844 10.632812 5.746094 10.035156 6.207031 C 9.441406 6.667969 8.558594 7.097656 7.644531 7.558594 C 6.726562 8.015625 5.769531 8.503906 5 9.195312 C 4.226562 9.886719 3.640625 10.839844 3.640625 12.03125 L 3.636719 12.03125 L 3.636719 14.347656 C 3.636719 14.53125 3.785156 14.679688 3.96875 14.679688 L 4.628906 14.679688 C 4.8125 14.679688 4.960938 14.53125 4.960938 14.347656 L 4.960938 12.03125 L 4.957031 12.03125 C 4.957031 11.242188 5.285156 10.707031 5.875 10.175781 C 6.46875 9.648438 7.332031 9.1875 8.234375 8.734375 C 9.136719 8.285156 10.074219 7.84375 10.84375 7.25 C 11.609375 6.65625 12.234375 5.824219 12.234375 4.753906 L 13.890625 4.753906 Z M 11.578125 1.449219 "/>
</g>
</svg>
